X: 161
T: Tekeli
R: jig
M: 6/8
L: 1/8
Z: 2012 John Chambers <jc:trillian.mit.edu>
B: J. Anderson "Budget of Strathspeys, Reels and Country Dances" (Early 1800s) p.16 #1
F: http://imslp.org/wiki/Anderson%27s_Budget_of_Strathspeys,_Reels_and_Country_Dances_(Various)
K: G
d |\
g2g gfg | e2g d3 | def gab | c'ag fed |\
g2g gfg | e2g d3 | def gab | c'af g2 :|
|: z |\
g2a b2b | bc'b a2g | bag bag | a2g a2b |\
g2a b3  | bc'b bag | a2g a2b | g3  g2 :|

%%sep 2 1 500
%%sep 1 1 500

